Mebel/img/Vector.svg

<svg width="12" height="11" viewBox="0 0 12 11" fill="none" xmlns="http://www.w3.org/2000/svg">
<path d="M11.8057 1.59239C12.1328 1.14744 12.0373 0.521517 11.5924 0.194349C11.1474 -0.132819 10.5215 -0.0373392 10.1943 0.407609L11.8057 1.59239ZM4.75 9.5L4.01721 10.1805C4.21999 10.3988 4.50962 10.5154 4.80715 10.4984C5.10468 10.4813 5.37911 10.3325 5.55565 10.0924L4.75 9.5ZM2.23279 5.31955C1.85699 4.91484 1.22426 4.8914 0.819548 5.26721C0.414838 5.64301 0.391404 6.27574 0.767206 6.68045L2.23279 5.31955ZM10.1943 0.407609L3.94435 8.90761L5.55565 10.0924L11.8057 1.59239L10.1943 0.407609ZM5.48279 8.81955L2.23279 5.31955L0.767206 6.68045L4.01721 10.1805L5.48279 8.81955Z" fill="#B89A61"/>
</svg>

<svg width="12" height="11" fill="none" xmlns="http://www.w3.org/2000/svg"><path d="M11.806 1.592A1 1 0 0010.194.408l1.612 1.184zM4.75 9.5l-.733.68a1 1 0 001.539-.088L4.75 9.5zM2.233 5.32A1 1 0 10.767 6.68l1.466-1.36zM10.194.408l-6.25 8.5 1.612 1.184 6.25-8.5L10.194.408zM5.483 8.82l-3.25-3.5L.767 6.68l3.25 3.5 1.466-1.36z" fill="#B89A61"/></svg>
